!!!COM: Scriabin, Alexander
!!!OTL@@FR: Prélude en fa mineur
!!!OTL@@EN: Prelude in F Minor
!!!OPR@@FR: 24 Préludes
!!!OPR@@EN: 24 Preludes
!!!OPS: 11
!!!ONM: 18
!!!ODT: 1895
!!!AGN: Prelude
**kern	**kern	**dynam
*staff2	*staff1	*staff1/2
*Ipiano	*Ipiano	*
*clefF4	*clefG2	*
*k[b-e-a-d-]	*k[b-e-a-d-]	*
*f:	*f:	*
*M2/4	*M2/4	*
12EEnL 12En	8r	.
12EE 12E	.	.
.	8c 8a- 8cc	.
12EEJ 12E	.	.
=1	=1	=1
12FFL 12F	8r	.
12BB- 12B-	.	.
.	8d- 8a- 8dd-	.
12FFJ 12F	.	.
12EEnL 12En	8r	.
12EE 12E	.	.
.	8c 8a- 8cc	.
12EEJ 12E	.	.
=2	=2	=2
12FFL 12F	8r	.
12BB- 12B-	.	.
.	8d- 8a- 8dd-	.
12FFJ 12F	.	.
12GGL 12G	8r	.
12GG 12G	.	.
.	8en 8b- 8een	.
12GGJ 12G	.	.
=3	=3	=3
12D-L 12d-	8r	.
12BB- 12B-	.	.
.	8f 8b- 8ff	.
12AA-J 12A-	.	.
12BB-L 12B-	8r	.
12GG 12G	.	.
.	8g 8dd- 8gg	.
12FFJ 12F	.	.
=4	=4	=4
12BB-L 12B-	8r	.
12FF 12F	.	.
.	8cc 8gg 8ccc	.
12EEnJ 12En	.	.
12EE-XL 12E-X	8r	.
12EE- 12E-	.	.
.	8cc 8gg-X 8ccc	.
12EE-J 12E-	.	.
=5	=5	=5
12DDnL 12Dn	8r	.
12AA- 12A-	.	.
.	8cc 8ff 8ccc	.
12DDJ 12D	.	.
12DD-XL 12D-X	8r	.
12DD- 12D-	.	.
.	8bn 8ff 8bbn	.
12DD-J 12D-	.	.
=6	=6	=6
12CCL 12C	8r	.
12FF 12F	.	.
.	8b-X 8ff 8bb-X	.
12CCJ 12C	.	.
12CCL 12C	8r	.
12CC 12C	.	.
.	8an 8ff 8aan	.
12CCJ 12C	.	.
=7	=7	=7
12BBBnL 12BBn	8r	.
12FF 12F	.	.
.	8a-X 8dd- 8ff 8aa-X	.
12BBBJ 12BB	.	.
12CCL 12C	8r	.
12FF 12F	.	.
.	8a- 8cc 8ff 8aa-	.
12CCJ 12C	.	.
=8	=8	=8
12DDnL 12Dn	8r	.
12GG 12G	.	.
.	8g 8bn 8ff 8gg	.
12DDJ 12D	.	.
12EEnL 12En	8r	.
12EE 12E	.	.
*	*^	*
.	8a-	8c 8cc	.
12EEJ 12E	.	.	.
=9	=9	=9	=9
12FFL 12F	4a-	8e-L 8ee-	.
12BB- 12B-	.	.	.
.	.	8d-J 8dd-	.
12FFJ 12F	.	.	.
12EEnL 12E-	8r	8r	.
12EE 12E-	.	.	.
.	8a-	8c 8cc	.
12EEJ 12E-	.	.	.
=10	=10	=10	=10
12FFL 12F	4a-	8e-L 8ee-	.
12BB- 12B-	.	.	.
.	.	8d-J 8dd-	.
12FFJ 12F	.	.	.
12GGL 12G	8r	8r	.
12GG 12G	.	.	.
.	8b-	8en 8een	.
12GGJ 12G	.	.	.
=11	=11	=11	=11
12D-L 12d-	4b-	8enL 8een	.
12BB- 12B-	.	.	.
.	.	8fJ 8ff	.
12AA-J 12A-	.	.	.
12BB-L 12B-	4dd-	8fL 8ff	.
12GG 12G	.	.	.
.	.	8gJ 8gg	.
12FFJ 12F	.	.	.
=12	=12	=12	=12
12BB-L 12B-	8gL 8gg	4cc	.
12FF 12F	.	.	.
.	8ccJ 8ccc	.	.
12EEnJ 12En	.	.	.
12EE-XL 12E-X	8dd-L 8ddd-	4gg-X	.
12EE- 12E-	.	.	.
.	8ccJ 8ccc	.	.
12EE-J 12E-	.	.	.
=13	=13	=13	=13
12DDnL 12Dn	8ccL 8ccc	4ff	.
12AA- 12A-	.	.	.
.	8bnJ 8bbn	.	.
12DDJ 12D	.	.	.
12DD-XL 12D-X	8bL 8bb	4ff	.
12DD- 12D-	.	.	.
.	8b-XJ 8bb-X	.	.
12DD-J 12D-	.	.	.
=14	=14	=14	=14
12CCL 12C	8b-L 8bb-	4ff	.
12FF 12F	.	.	.
.	8anJ 8aan	.	.
12CCJ 12C	.	.	.
12CCL 12C	8aL 8aa	4ff	.
12CC 12C	.	.	.
.	8a-XJ 8aa-X	.	.
12CCJ 12C	.	.	.
=15	=15	=15	=15
12BBBnL 12BBn	8a-L 8aa-	4dd- 4ff	.
12D- 12d-	.	.	.
.	8gJ 8gg	.	.
12BBBJ 12BB	.	.	.
12CCL 12C	8a-L 8aa-	4cc 4een	.
12C 12c	.	.	.
.	8gJ 8gg	.	.
12CCJ 12C	.	.	.
=16	=16	=16	=16
12FFFL 12FF	6g 6gg	4cc	.
12CJ 12c	.	.	.
12r	12f 12ff	.	.
*	*v	*v	*
8r	12FL 12f	.
.	12F 12f	.
[8EE- [8E-	.	.
.	12FJ 12f	.
=17	=17	=17
8EE-] 8E-]	12FL 12f	.
.	12G-X 12g-X	.
4DD- 4D-	.	.
.	12GnJ 12gn	.
*	*^	*
.	4f	12A-L 12a-	.
.	.	12B- 12b-	.
[8CC [8C	.	.	.
.	.	12cJ 12cc	.
=18	=18	=18	=18
8CCL] 8C]	6a-	4d- 4dd-	.
8BBB-J 8BB-	.	.	.
.	12g	.	.
12EE-L 12E-	8g-XL	8r	.
12EE- 12E-	.	.	.
.	8gnJ	8d- 8dd-	.
12EE-J 12E-	.	.	.
=19	=19	=19	=19
12FF-XL 12F-X	4a-	8r	.
12EE- 12E-	.	.	.
.	.	8c 8cc	.
12EE-J 12E-	.	.	.
12r	8e-L	8r	.
12EE-L 12E-	.	.	.
.	8d-J	8G 8g	.
12EE-J 12E-	.	.	.
=20	=20	=20	=20
12FF-XL 12F-X	4c	8r	.
12EE- 12E-	.	.	.
.	.	8A- 8a-	.
12EE-J 12E-	.	.	.
*	*v	*v	*
8r	12A-L 12a-	.
.	12A- 12a-	.
[8GG-X [8G-X	.	.
.	12A-J 12a-	.
=21	=21	=21
8GG-] 8G-]	12A-L 12a-	.
.	12B-- 12b--	.
4FF-X 4F-X	.	.
.	12B-XJ 12b-X	.
*	*^	*
.	4a-	12c-XL 12cc-X	.
.	.	12d- 12dd-	.
[8EE- [8E-	.	.	.
.	.	12e-J 12ee-	.
=22	=22	=22	=22
8EE-L] 8E-]	6cc-X	4f-X 4ff-X	.
8DD-J 8D-	.	.	.
.	12b-	.	.
12r	8b--L	8r	.
12GG-XL 12G-X	.	.	.
.	8b-XJ	8f- 8ff-	.
12GG-J 12G-	.	.	.
=23	=23	=23	=23
12AA--L 12A--/	4cc-X	8r	.
12GG-X 12G-X	.	.	.
.	.	8e- 8ee-	.
12GG-J 12G-	.	.	.
12r	8g-XL	8r	.
12GG-L 12G-	.	.	.
.	8f-XJ	8B- 8b-	.
12GG-J 12G-	.	.	.
=24	=24	=24	=24
12AA--L 12A--/	4e-	8r	.
12GG-X 12G-X	.	.	.
.	.	8c-X 8cc-X	.
12GG-J 12G-	.	.	.
12r	8cc-L	8r	.
12AA-XL 12A-X	.	.	.
.	8ccnJ	[8g-X [8gg-X	.
12AA-J 12A-	.	.	.
=25	=25	=25	=25
12BB--L 12B--	4dd-	8g-L] 8gg-]	.
12AA- 12A-	.	.	.
.	.	8fJ 8ff	.
12AA-J 12A-	.	.	.
12r	8a-L	8r	.
12AA-L 12A-	.	.	.
.	8g-XJ	[8c [8cc	.
12AA-J 12A-	.	.	.
=26	=26	=26	=26
12BB--L 12B--	4f	8cL] 8cc]	.
12AA- 12A-	.	.	.
.	.	8d-J 8dd-	.
12AA-J 12A-	.	.	.
12r	8dd-L	8r	.
12BB-XL 12B-X	.	.	.
.	8ddnJ	8a- 8aa-	.
12BB-J 12B-	.	.	.
=27	=27	=27	=27
12C-XL 12c-X	4ee-	8r	.
12C- 12c-	.	.	.
.	.	8a- 8aa-	.
12C-J 12c-	.	.	.
12BBnL 12Bn	8ddnL	8r	.
12BB 12B	.	.	.
.	8dd#XJ	8an 8aan	.
12BBJ 12B	.	.	.
=28	=28	=28	=28
12CnL 12cn	4een	8r	.
12C 12c	.	.	.
.	.	8an 8aan	.
12CJ 12c	.	.	.
12CL 12c	8ee-XL	8r	.
12C 12c	.	.	.
.	8eenJ	8b-X 8bb-X	.
12CJ 12c	.	.	.
=29	=29	=29	=29
12D-L 12d-	4ff	8r	.
12D- 12d-	.	.	.
.	.	4b- 4bb-	.
12D-J 12d-	.	.	.
12D-L 12d-	4ff	.	.
12D- 12d-	.	.	.
.	.	8bn 8bbn	.
12D-J 12d-	.	.	.
*	*v	*v	*
=30	=30	=30
4C 4c	4een 4cc 4ccc	.
12EEnL 12En	8r	.
12EE 12E	.	.
*	*^	*
.	8a-	8c 8cc	.
12EEJ 12E	.	.	.
=31	=31	=31	=31
12FFL 12F	4a-	8e-L 8ee-	.
12BB- 12B-	.	.	.
.	.	8d-J 8dd-	.
12FFJ 12F	.	.	.
12EEnL 12En	8r	8r	.
12EE 12E	.	.	.
.	8a-	8c 8cc	.
12EEJ 12E	.	.	.
=32	=32	=32	=32
12FFL 12F	4a-	8e-L 8ee-	.
12BB- 12B-	.	.	.
.	.	8d-J 8dd-	.
12FFJ 12F	.	.	.
*	*v	*v	*
12GGL 12G	8r	.
12GG 12G	.	.
.	8en 8b- 8een	.
12GGJ 12G	.	.
=33	=33	=33
*	*^	*
12D-L 12d-	8enL 8een	4b-	.
12BB- 12B-	.	.	.
.	8fJ 8ff	.	.
12AA-J 12A-	.	.	.
12BB-L 12B-	8fL 8ff	4dd-	.
12GG 12G	.	.	.
.	8gJ 8gg	.	.
12FFJ 12F	.	.	.
=34	=34	=34	=34
12BB-L 12B-	8gL 8gg	4cc	.
12FF 12F	.	.	.
.	8ccJ 8ccc	.	.
12EEnJ 12En	.	.	.
12EE-XL 12E-X	12dd-L 12ddd-	4gg-X	.
12EE- 12E-	12cc 12ccc	.	.
12EE-J 12E-	12ccJ 12ccc	.	.
=35	=35	=35	=35
12DDnL 12Dn	12ccL 12ccc	4ff	.
12AA- 12A-	12bn 12bbn	.	.
12DDJ 12D	12bJ 12bb	.	.
12DD-XL 12D-X	12bL 12bb	4ff	.
12DD- 12D-	12b-X 12bb-X	.	.
12DD-J 12D-	12b-J 12bb-	.	.
=36	=36	=36	=36
12CCL 12C	12b-L 12bb-	4ff	.
12FF 12F	12an 12aan	.	.
12CCJ 12C	12aJ 12aa	.	.
12CCL 12C	12aL 12aa	4ff	.
12CC 12C	12a-X 12aa-X	.	.
12CCJ 12C	12a-J 12aa-	.	.
=37	=37	=37	=37
8BBBnL 8BBn	12a-L 12aa-	4ff	.
.	12g 12gg	.	.
8FJ 8f	.	.	.
.	12gJ 12gg	.	.
8CCL 8C	12a-L 12aa-	4ff	.
.	12g 12gg	.	.
8FJ 8f	.	.	.
.	12gJ 12gg	.	.
=38	=38	=38	=38
8DD-L 8D-	12a-L 12aa-	4ff	.
.	12g 12gg	.	.
8FJ 8f	.	.	.
.	12gJ 12gg	.	.
8CCL 8C	12a-L 12aa-	4ff	.
.	12g 12gg	.	.
8FJ 8f	.	.	.
.	12gJ 12gg	.	.
=39	=39	=39	=39
8BBBnL 8BBn	12a-L 12aa-	4ff	.
.	12g 12gg	.	.
8FJ 8f	.	.	.
.	12gJ 12gg	.	.
8CCL 8C	12a-L 12aa-	4ff	.
.	12g 12gg	.	.
8FJ 8f	.	.	.
.	12gJ 12gg	.	.
=40	=40	=40	=40
8DD-L 8D-	12a-L 12aa-	4ff	.
.	12g 12gg	.	.
8BBnJ 8Bn	.	.	.
.	12gJ 12gg	.	.
8CL 8c	12a-L 12aa-	4een	.
.	12g 12gg	.	.
8CCJ 8C	.	.	.
.	12gJ 12gg	.	.
*	*v	*v	*
=41	=41	=41
4FF 4F	4f 4ff	.
8r	12FL 12f	.
.	12F 12f	.
[8EE- [8E-	.	.
.	12FJ 12f	.
=42	=42	=42
8EE-] 8E-]	12FL 12f	.
.	12G-X 12g-X	.
4DD- 4D-	.	.
.	12GnJ 12gn	.
*	*^	*
.	4f	12A-L 12a-	.
.	.	12B- 12b-	.
[8CC [8C	.	.	.
.	.	12cJ 12cc	.
=43	=43	=43	=43
6CC] 6C]	4f	4d- 4dd-	.
12BBB- 12BB-	.	.	.
*	*clefF4	*clefF4	*
*	*v	*v	*
12r	4C 4En 4c	.
12BBB-L 12BB-	.	.
12BBB-J 12BB-	.	.
=44	=44	=44
12BBB-L 12BB-	4C 4F 4c	.
12AAA- 12AA-	.	.
12AAA-J 12AA-	.	.
12r	4C 4B- 4c	.
12GGGL 12GG	.	.
12GGGJ 12GG	.	.
=45	=45	=45
12GGGL 12GG	4C 4A- 4c	.
12FFF 12FF	.	.
12FFFJ 12FF	.	.
*	*clefG2	*
8r	12FL 12f	.
.	12F 12f	.
[8EE- [8E-	.	.
.	12FJ 12f	.
=46	=46	=46
8EE-] 8E-]	12FL 12f	.
.	12G-X 12g-X	.
4DD- 4D-	.	.
.	12GnJ 12gn	.
*	*^	*
.	4f	12A-L 12a-	.
.	.	12B- 12b-	.
[8CC [8C	.	.	.
.	.	12cJ 12cc	.
=47	=47	=47	=47
6CC] 6C]	4f	4d- 4dd-	.
12BBB- 12BB-	.	.	.
*	*clefF4	*clefF4	*
*	*v	*v	*
12r	4C 4En 4c	.
12BBB-L 12BB-	.	.
12BBB-J 12BB-	.	.
=48	=48	=48
12BBB-L 12BB-	4C 4F 4c	.
12AAA- 12AA-	.	.
12AAA-J 12AA-	.	.
12r	4C 4B- 4c	.
12GGGL 12GG	.	.
12GGGJ 12GG	.	.
=49	=49	=49
*^	*^	*
12GGGL 12GG	4ryy	4C 4A- 4c	4ryy	.
12FFF 12FF	.	.	.	.
12FFFJ 12FF	.	.	.	.
*	*	*clefG2	*clefG2	*
4CC	12GGGL 12GG	4c	12GL 12g	.
.	12FFF 12FF	.	12F 12f	.
.	12FFFJ 12FF	.	12FJ 12f	.
=50	=50	=50	=50	=50
4CC	12GGGL 12GG	12gL 12gg	4cc	.
.	12FFF 12FF	12f 12ff	.	.
.	12FFFJ 12FF	12fJ 12ff	.	.
4CC	12GGGL 12GG	12ggL 12ggg	4ccc	.
.	12FFF 12FF	12ff 12fff	.	.
.	12FFFJ 12FF	12ffJ 12fff	.	.
*	*	*v	*v	*
*v	*v	*	*
=51	=51	=51
*	*8va	*
*^	*^	*
4CC	12GGGL 12GG	12gggL 12gggg	4cccc	.
.	12FFF 12FF	12fff 12ffff	.	.
.	12FFFJ 12FF	12fffJ 12ffff	.	.
*	*	*v	*v	*
*v	*v	*	*
*	*X8va	*
4r	4r	.
=52	=52	=52
2r	2r	.
==	==	==
*-	*-	*-
!!!system-decoration: {(*)}
!!!filter: flipper -a
!!!ENC: Bryan Jacob Bell
!!!END: November 2021 to April 2022
!!!PED: Günter Philipp
!!!PTL: Ausgewählte Klavierwerke (Edition Peters)
